X:18796
T:Willie Coleman's Jig
A:Ireland
S:Robert Allair
R:Jig
M:6/8
L:1/8
K:G
A|B2G AGE|GED GBd|edB dgb| age dBA|
~B3 AGE |GED GBd |edB dBA | AGF G2 :|
d|~g3 edB | dgb age | ~g3 edB| GBd e/f/ed|
~g3 edB| dgb age | dBd gdB | AGF G2 :|


